!!!!SEGMENT: pl-sa--127-a-iii-27--002_guglielmi-pietro-alessandro--symphonia-in-d-andante.krn
!!!cenid: 17xx:680
!!!COM: Guglielmi, Pietro Alessandro
!!!COM-rismid: pe30001398
!!!CDT: 1728/12/09-1804/11/19
!!!CNT: Italian
!!!OTL: Symphonia in D – Andante
!!!PDT:
!!!AGN: Secular
!!!SMS-siglum: PL-SA
!!!SMS-shelfmark: 127/A III 27
!!!SMS-shelfwork: 001-002 M
!!!SMS-variant:
!!!SMS-altvar:
!!!NIFC-rismid: 1001035048
!!!URL-scan: http://bc.bdsandomierz.pl/dlibra/publication/1484/edition/1452/content
!!!ONB-nifc: UWAGA: części Symphonii: Allegro assai, Andante, Allegro
**kern	**dynam	**kern	**dynam	**kern	**dynam	**kern	**kern	**kern	**kern
*part7	*part7	*part6	*part6	*part5	*part5	*part4	*part3	*part2	*part1
*staff7	*	*staff6	*	*staff5	*	*staff4	*staff3	*staff2	*staff1
*group4	*	*group3	*	*group3	*	*group2	*group2	*group1	*group1
*I"Baſso	*	*I"Violino 2do	*	*I"Violino I'mo	*	*I"Cornu 2'do ex D.	*I"Cornu Imo ex D.	*I"Oboe 2'do.	*I"Oboe I'mo.
*I'B	*	*I'Vn II	*	*I'Vn I	*	*I'C. II	*I'C. I	*I'Ob. II	*I'Ob. I
*clefF4	*	*clefG2	*	*clefG2	*	*clefG2	*clefG2	*clefG2	*clefG2
*	*	*	*	*	*	*ITrd1c2	*ITrd1c2	*	*
*k[b-e-]	*	*k[b-e-]	*	*k[b-e-]	*	*k[b-e-]	*k[b-e-]	*k[b-e-]	*k[b-e-]
*B-:	*	*B-:	*	*B-:	*	*B-:	*B-:	*B-:	*B-:
*M2/4	*	*M2/4	*	*M2/4	*	*M2/4	*M2/4	*M2/4	*M2/4
=1	=1	=1	=1	=1	=1	=1	=1	=1	=1
*	*	*	*	*	*above	*	*	*	*
!LO:TX:b:t=Andante	!	!LO:TX:a:t=Andante	!	!LO:TX:a:t=Andante	!	!	!	!	!
!	!	!LO:TX:a:t=problem:caudy z prawej strony	!	!LO:TX:a:t=problem:caudy z prawej strony	!LO:DY:t=f.	!LO:TX:a:t=Andante Tacet	!LO:TX:a:t=Tacet	!LO:TX:a:t=Andante Tacet	!LO:TX:a:t=Andante Tacet
16B-\LL	.	2d/ [2b-	.	2d/ [2b-	f	2ryy	2ryy	2ryy	2ryy
16c\	.	.	.	.	.	.	.	.	.
16d\	.	.	.	.	.	.	.	.	.
16c\JJ	.	.	.	.	.	.	.	.	.
16B-\LL	.	.	.	.	.	.	.	.	.
16c\	.	.	.	.	.	.	.	.	.
16d\	.	.	.	.	.	.	.	.	.
16c\JJ	.	.	.	.	.	.	.	.	.
=2	=2	=2	=2	=2	=2	=2	=2	=2	=2
4B-\	.	8b-\]	.	8b-\]	.	2ryy	2ryy	2ryy	2ryy
!	!	!	!LO:DY:a	!	!	!	!	!	!
.	.	8dd'\L	p	8ff'\L	.	.	.	.	.
4r	.	8ee-'\	.	8gg'\	.	.	.	.	.
.	.	8cc'\J	.	8aa'\J	.	.	.	.	.
=3	=3	=3	=3	=3	=3	=3	=3	=3	=3
!	!LO:DY:b	!	!	!	!	!	!	!	!
4B-\	p	8dd'\L	.	8bb-'\L	.	2ryy	2ryy	2ryy	2ryy
.	.	8dd'\	.	8ff'\	.	.	.	.	.
4r	.	8ee-'\	.	8gg'\	.	.	.	.	.
.	.	8bn'\J	.	8dd'\J	.	.	.	.	.
=4	=4	=4	=4	=4	=4	=4	=4	=4	=4
*	*	*^	*	*^	*	*	*	*	*
*	*	*	*	*	*	*2\right	*	*	*	*	*
!	!LO:DY:b	!	!	!LO:DY:b	!	!	!	!	!	!	!
16c\LL	f	[2cc/	2e-\	f	2ccc/	[>2ee-\	.	2ryy	2ryy	2ryy	2ryy
16d\	.	.	.	.	.	.	.	.	.	.	.
16e-\	.	.	.	.	.	.	.	.	.	.	.
16d\JJ	.	.	.	.	.	.	.	.	.	.	.
16c\LL	.	.	.	.	.	.	.	.	.	.	.
16B-\	.	.	.	.	.	.	.	.	.	.	.
16A\	.	.	.	.	.	.	.	.	.	.	.
16G\JJ	.	.	.	.	.	.	.	.	.	.	.
*	*	*v	*v	*	*	*	*	*	*	*	*
=5	=5	=5	=5	=5	=5	=5	=5	=5	=5	=5
4F\	.	8cc\]	.	8ccc/	8ee-\]	.	2ryy	2ryy	2ryy	2ryy
*	*	*	*	*v	*v	*	*	*	*	*
!	!	!	!LO:DY:a	!	!LO:DY:a	!	!	!	!
.	.	8a'/L	p	8cc`\L	p	.	.	.	.
4r	.	8b-'/	.	8dd`\	.	.	.	.	.
.	.	8cc'/J	.	8ee-`\J	.	.	.	.	.
=6	=6	=6	=6	=6	=6	=6	=6	=6	=6
!	!LO:DY:b	!	!	!	!	!	!	!	!
4F\	p	8dd'\L	.	8ff`\L	.	2ryy	2ryy	2ryy	2ryy
.	.	8ee-'\	.	8gg`\	.	.	.	.	.
4r	.	8a'\	.	8cc`\	.	.	.	.	.
.	.	8cc'\J	.	8ee-`\J	.	.	.	.	.
=7	=7	=7	=7	=7	=7	=7	=7	=7	=7
!	!LO:DY:t=f	!	!	!	!	!	!	!	!
!	!LO:DY:b	!	!LO:DY:b	!	!LO:DY:a	!	!	!	!
16B-\LL	f	2d/ [2b-	f	2d/ [2b-	f	2ryy	2ryy	2ryy	2ryy
16c\	.	.	.	.	.	.	.	.	.
16d\	.	.	.	.	.	.	.	.	.
16c\JJ	.	.	.	.	.	.	.	.	.
16B-\LL	.	.	.	.	.	.	.	.	.
16c\	.	.	.	.	.	.	.	.	.
16d\	.	.	.	.	.	.	.	.	.
16c\JJ	.	.	.	.	.	.	.	.	.
=8	=8	=8	=8	=8	=8	=8	=8	=8	=8
!	!	!	!	!	!LO:DY:a	!	!	!	!
4B-\	.	8b-\]	.	8b-\]	p	2ryy	2ryy	2ryy	2ryy
!	!	!	!LO:DY:a	!	!	!	!	!	!
.	.	8dd'\L	p	8ff'\L	.	.	.	.	.
4r	.	8ee-'\	.	8gg'\	.	.	.	.	.
.	.	8cc'\J	.	8aa'\J	.	.	.	.	.
!LO:LB:g=original	!	!	!	!	!	!	!	!	!
=9	=9	=9	=9	=9	=9	=9	=9	=9	=9
!	!LO:DY:b	!	!	!	!	!	!	!	!
4B-\	p	8dd'\L	.	8bb-`\L	.	2ryy	2ryy	2ryy	2ryy
.	.	8dd'\	.	8ff'\	.	.	.	.	.
4r	.	8cc'\	.	8ee-'\	.	.	.	.	.
.	.	8b-'\J	.	8dd'\J	.	.	.	.	.
!	!	!LO:LB:g=original	!	!LO:LB:g=original	!	!	!	!	!
=10	=10	=10	=10	=10	=10	=10	=10	=10	=10
*	*	*^	*	*^	*	*	*	*	*
!	!LO:DY:b	!	!	!LO:DY:b	!	!	!LO:DY:a	!	!	!	!
16A\LL	f	[2ff/	2a\	f	[2ff/	2a\	f	2ryy	2ryy	2ryy	2ryy
16B-\	.	.	.	.	.	.	.	.	.	.	.
16c\	.	.	.	.	.	.	.	.	.	.	.
16B-\JJ	.	.	.	.	.	.	.	.	.	.	.
16A\LL	.	.	.	.	.	.	.	.	.	.	.
16B-\	.	.	.	.	.	.	.	.	.	.	.
16A\	.	.	.	.	.	.	.	.	.	.	.
16G\JJ	.	.	.	.	.	.	.	.	.	.	.
*	*	*v	*v	*	*	*	*	*	*	*	*
*	*	*	*	*v	*v	*	*	*	*	*
=11	=11	=11	=11	=11	=11	=11	=11	=11	=11
!	!	!	!	!	!LO:DY:a	!	!	!	!
4F\	.	8ff\]	.	8ff'\]	p	2ryy	2ryy	2ryy	2ryy
!	!	!	!LO:DY:b	!	!	!	!	!	!
.	.	8a'/L	p	8cc'\L	.	.	.	.	.
4r	.	8b-'/	.	8dd'\	.	.	.	.	.
.	.	8cc'/J	.	8een'\J	.	.	.	.	.
=12	=12	=12	=12	=12	=12	=12	=12	=12	=12
!	!LO:DY:b	!LO:TX:a:t=problem:mixed beam	!	!	!	!	!	!	!
4F\	p	8dd'\L	.	8ff'\L	.	2ryy	2ryy	2ryy	2ryy
.	.	8een'\	.	8gg'\	.	.	.	.	.
4r	.	8ff'\	.	8aa'\	.	.	.	.	.
.	.	8a'/J	.	8cc'\J	.	.	.	.	.
=13	=13	=13	=13	=13	=13	=13	=13	=13	=13
!	!LO:DY:b	!	!LO:DY:b	!	!LO:DY:a	!	!	!	!
16G\LL	f	2d/ [2b-	f	2d/ [2b-	f	2ryy	2ryy	2ryy	2ryy
16A\	.	.	.	.	.	.	.	.	.
16B-\	.	.	.	.	.	.	.	.	.
16A\JJ	.	.	.	.	.	.	.	.	.
16G\LL	.	.	.	.	.	.	.	.	.
16F\	.	.	.	.	.	.	.	.	.
16En\	.	.	.	.	.	.	.	.	.
16D\JJ	.	.	.	.	.	.	.	.	.
=14	=14	=14	=14	=14	=14	=14	=14	=14	=14
4C/	.	8b-\]	.	8b-\]	.	2ryy	2ryy	2ryy	2ryy
!	!	!	!LO:DY:a	!	!LO:DY:a	!	!	!	!
.	.	8b-'\L	p	8dd'\L	p	.	.	.	.
4r	.	8cc'\	.	8een'\	.	.	.	.	.
.	.	8dd'\J	.	8ff'\J	.	.	.	.	.
=15	=15	=15	=15	=15	=15	=15	=15	=15	=15
!	!LO:DY:b	!LO:TX:a:t=problem:mixed beam	!	!LO:TX:a:t=problem:mixed beam	!	!	!	!	!
4C/	p	8een'\L	.	8gg'\L	.	2ryy	2ryy	2ryy	2ryy
.	.	8ff'\	.	8aa'\	.	.	.	.	.
4r	.	8gg'\	.	8bb-'\	.	.	.	.	.
.	.	8g'/J	.	8b-'/J	.	.	.	.	.
=16	=16	=16	=16	=16	=16	=16	=16	=16	=16
8F\	.	16f/LL	.	4a/	.	2ryy	2ryy	2ryy	2ryy
.	.	16a/	.	.	.	.	.	.	.
8r	.	16cc/	.	.	.	.	.	.	.
.	.	16a/JJ	.	.	.	.	.	.	.
8F\	.	16f/LL	.	8r	.	.	.	.	.
.	.	16a/	.	.	.	.	.	.	.
8r	.	16cc/	.	8ff\	.	.	.	.	.
.	.	16a/JJ	.	.	.	.	.	.	.
=17	=17	=17	=17	=17	=17	=17	=17	=17	=17
8A\	.	16f/LL	.	8ccc'\L	.	2ryy	2ryy	2ryy	2ryy
.	.	16a/	.	.	.	.	.	.	.
8r	.	16cc/	.	8ccc'\J	.	.	.	.	.
.	.	16a/JJ	.	.	.	.	.	.	.
8A\	.	16f/LL	.	8r	.	.	.	.	.
.	.	16a/	.	.	.	.	.	.	.
8r	.	16cc/	.	8ff\	.	.	.	.	.
.	.	16a/JJ	.	.	.	.	.	.	.
!LO:LB:g=original	!	!LO:LB:g=original	!	!	!	!	!	!	!
=18	=18	=18	=18	=18	=18	=18	=18	=18	=18
8B-\	.	16f/LL	.	8ddd'\L	.	2ryy	2ryy	2ryy	2ryy
.	.	16b-/	.	.	.	.	.	.	.
8r	.	16dd/	.	8ddd'\J	.	.	.	.	.
.	.	16b-/JJ	.	.	.	.	.	.	.
8B-\	.	16f/LL	.	8r	.	.	.	.	.
.	.	16b-/	.	.	.	.	.	.	.
8r	.	16dd/	.	8ddd'\	.	.	.	.	.
.	.	16b-/JJ	.	.	.	.	.	.	.
=19	=19	=19	=19	=19	=19	=19	=19	=19	=19
8c\	.	16en/LL	.	8ccc'\L	.	2ryy	2ryy	2ryy	2ryy
.	.	16g/	.	.	.	.	.	.	.
8r	.	16cc/	.	8ccc'\J	.	.	.	.	.
.	.	16g/JJ	.	.	.	.	.	.	.
8C/	.	16e/LL	.	8r	.	.	.	.	.
.	.	16g/	.	.	.	.	.	.	.
8r	.	16cc/	.	8een\	.	.	.	.	.
.	.	16g/JJ	.	.	.	.	.	.	.
!	!	!	!	!LO:LB:g=original	!	!	!	!	!
=20	=20	=20	=20	=20	=20	=20	=20	=20	=20
8F\	.	16f/LL	.	8ff\L	.	2ryy	2ryy	2ryy	2ryy
.	.	16a/	.	.	.	.	.	.	.
8r	.	16cc/	.	8ff\J	.	.	.	.	.
.	.	16a/JJ	.	.	.	.	.	.	.
8F\	.	16f/LL	.	8r	.	.	.	.	.
.	.	16a/	.	.	.	.	.	.	.
8r	.	16cc/	.	8ff\	.	.	.	.	.
.	.	16a/JJ	.	.	.	.	.	.	.
=21	=21	=21	=21	=21	=21	=21	=21	=21	=21
8A\	.	16f/LL	.	8ccc'\L	.	2ryy	2ryy	2ryy	2ryy
.	.	16a/	.	.	.	.	.	.	.
8r	.	16cc/	.	8ccc'\J	.	.	.	.	.
.	.	16a/JJ	.	.	.	.	.	.	.
8A\	.	16f/LL	.	8r	.	.	.	.	.
.	.	16a/	.	.	.	.	.	.	.
8r	.	16cc/	.	8ff\	.	.	.	.	.
.	.	16a/JJ	.	.	.	.	.	.	.
=22	=22	=22	=22	=22	=22	=22	=22	=22	=22
8B-\	.	16f/LL	.	8ddd'\L	.	2ryy	2ryy	2ryy	2ryy
.	.	16b-/	.	.	.	.	.	.	.
8r	.	16dd/	.	8ddd'\J	.	.	.	.	.
.	.	16b-/JJ	.	.	.	.	.	.	.
8B-\	.	16f/LL	.	8r	.	.	.	.	.
.	.	16b-/	.	.	.	.	.	.	.
8r	.	16dd/	.	8ddd\	.	.	.	.	.
.	.	16b-/JJ	.	.	.	.	.	.	.
=23	=23	=23	=23	=23	=23	=23	=23	=23	=23
8c\	.	16en/LL	.	8ccc'\L	.	2ryy	2ryy	2ryy	2ryy
.	.	16g/	.	.	.	.	.	.	.
8r	.	16cc/	.	8ccc'\J	.	.	.	.	.
.	.	16g/JJ	.	.	.	.	.	.	.
8C/	.	16e/LL	.	8r	.	.	.	.	.
.	.	16g/	.	.	.	.	.	.	.
8r	.	16cc/	.	8een\	.	.	.	.	.
.	.	16g/JJ	.	.	.	.	.	.	.
!LO:PB:g=original	!	!	!	!	!	!	!	!	!
=24	=24	=24	=24	=24	=24	=24	=24	=24	=24
*	*	*^	*	*	*	*	*	*	*
!LO:TX:a:t=problem	!LO:DY:b	!	!	!	!	!	!	!	!	!
!	!LO:DY:t=f	!	!	!	!	!	!	!	!	!
8F\	f	8a/	8ryy	.	8ff\	.	2ryy	2ryy	2ryy	2ryy
!LO:TX:A:t=problem:pierwsza miara zapisana również na poprzedniej stronie	!	!	!	!LO:DY:b	!	!	!	!	!	!
8r	.	8r	8ryy	f	8r	.	.	.	.	.
16F\LL	.	16ff/LL	16cc\LL	.	16aa\LL	.	.	.	.	.
16G\	.	16ff/	16cc\	.	16aa\	.	.	.	.	.
16A\	.	16ff/	16cc\	.	16aa\	.	.	.	.	.
16F\JJ	.	16ff/JJ	16cc\JJ	.	16aa\JJ	.	.	.	.	.
!	!	!LO:LB:g=original	!	!	!	!	!	!	!	!
=25	=25	=25	=25	=25	=25	=25	=25	=25	=25	=25
16B-\LL	.	16ff/LL	16dd\LL	.	16gg\LL	.	2ryy	2ryy	2ryy	2ryy
16c\	.	16ff/	16dd\	.	16gg\	.	.	.	.	.
16d\	.	16ff/	16dd\	.	16gg\	.	.	.	.	.
16B-\JJ	.	16ff/JJ	16dd\JJ	.	16gg\JJ	.	.	.	.	.
16c\LL	.	16een/LL	16cc\LL	.	16gg\LL	.	.	.	.	.
16B-\	.	16ee/	16cc\	.	16gg\	.	.	.	.	.
16A\	.	16ee/	16cc\	.	16gg\	.	.	.	.	.
16G\JJ	.	16ee/JJ	16cc\JJ	.	16gg\JJ	.	.	.	.	.
=26	=26	=26	=26	=26	=26	=26	=26	=26	=26	=26
*	*	*	*	*	*tremolo	*	*	*	*	*
*	*	*	*	*	*2\right	*	*	*	*	*
16F\LL	.	16ff/LL	16a\LL	.	16aa\L	.	2ryy	2ryy	2ryy	2ryy
16G\	.	16ff/	16a\	.	16aa\	.	.	.	.	.
16A\	.	16ff/	16a\	.	16aa\	.	.	.	.	.
16G\JJ	.	16ff/JJ	16a\JJ	.	16aa\	.	.	.	.	.
16F\LL	.	16ff/LL	16cc\LL	.	16aa\	.	.	.	.	.
16G\	.	16ff/	16cc\	.	16aa\	.	.	.	.	.
16A\	.	16ff/	16cc\	.	16aa\	.	.	.	.	.
16F\JJ	.	16ff/JJ	16cc\JJ	.	16aa\J	.	.	.	.	.
=27	=27	=27	=27	=27	=27	=27	=27	=27	=27	=27
16B-\LL	.	16ff/LL	16dd\LL	.	16gg\L	.	2ryy	2ryy	2ryy	2ryy
16c\	.	16ff/	16dd\	.	16gg\	.	.	.	.	.
16d\	.	16ff/	16dd\	.	16gg\	.	.	.	.	.
16B-\JJ	.	16ff/JJ	16dd\JJ	.	16gg\	.	.	.	.	.
16c\LL	.	16een/LL	16cc\LL	.	16gg\	.	.	.	.	.
16B-\	.	16ee/	16cc\	.	16gg\	.	.	.	.	.
16A\	.	16ee/	16cc\	.	16gg\	.	.	.	.	.
16G\JJ	.	16ee/JJ	16cc\JJ	.	16gg\J	.	.	.	.	.
*	*	*	*	*	*Xtremolo	*	*	*	*	*
=28	=28	=28	=28	=28	=28	=28	=28	=28	=28	=28
*	*	*	*	*	*^	*	*	*	*	*
!	!	!	!	!LO:DY:b	!	!	!	!	!	!	!
16F\LL	.	[2ff/	2a\	f	[2ff/	2a\	.	2ryy	2ryy	2ryy	2ryy
16G\	.	.	.	.	.	.	.	.	.	.	.
16A\	.	.	.	.	.	.	.	.	.	.	.
16G\JJ	.	.	.	.	.	.	.	.	.	.	.
16F\LL	.	.	.	.	.	.	.	.	.	.	.
16G\	.	.	.	.	.	.	.	.	.	.	.
16A\	.	.	.	.	.	.	.	.	.	.	.
16G\JJ	.	.	.	.	.	.	.	.	.	.	.
*	*	*v	*v	*	*	*	*	*	*	*	*
*	*	*	*	*v	*v	*	*	*	*	*
!	!	!	!	!LO:LB:g=original	!	!	!	!	!
=29	=29	=29	=29	=29	=29	=29	=29	=29	=29
4F\	.	8ff\]	.	8ff\]	.	2ryy	2ryy	2ryy	2ryy
!	!	!	!LO:DY:b	!	!LO:DY:a	!	!	!	!
.	.	8a-X'/L	p	8ff'\L	p	.	.	.	.
4r	.	8b-'/	.	8gg'\	.	.	.	.	.
.	.	8cc'/J	.	8aa'\J	.	.	.	.	.
=30	=30	=30	=30	=30	=30	=30	=30	=30	=30
4F\	.	8a-X'/L	.	8ff'\L	.	2ryy	2ryy	2ryy	2ryy
.	.	8g'/	.	8ee-X'\	.	.	.	.	.
4r	.	8f-X'/	.	8dd'\	.	.	.	.	.
.	.	8e-X'/J	.	8cc'\J	.	.	.	.	.
!LO:LB:g=original	!	!	!	!	!	!	!	!	!
=31	=31	=31	=31	=31	=31	=31	=31	=31	=31
*	*	*^	*	*	*	*	*	*	*
!	!	!	!	!	!	!LO:DY:t=f	!	!	!	!
!	!LO:DY:a	!	!	!	!	!LO:DY:b	!	!	!	!
16G\LL	f	(2b/	2d\	f	2d/ [2bn	f	2ryy	2ryy	2ryy	2ryy
16A\	.	.	.	.	.	.	.	.	.	.
16Bn\	.	.	.	.	.	.	.	.	.	.
16A\JJ	.	.	.	.	.	.	.	.	.	.
16G\LL	.	.	.	.	.	.	.	.	.	.
16A\	.	.	.	.	.	.	.	.	.	.
16B\	.	.	.	.	.	.	.	.	.	.
16A\JJ	.	.	.	.	.	.	.	.	.	.
*	*	*v	*v	*	*	*	*	*	*	*
=32	=32	=32	=32	=32	=32	=32	=32	=32	=32
!	!	!	!	!	!LO:DY:b	!	!	!	!
4G\	.	8b-/)	.	8b\]	f	2ryy	2ryy	2ryy	2ryy
!	!	!	!	!	!LO:DY:a	!	!	!	!
.	.	8b-'\L	p	8dd'\L	p	.	.	.	.
4r	.	8cc'\	.	8ee-X'\	.	.	.	.	.
.	.	8dd'\J	.	8ff'\J	.	.	.	.	.
=33	=33	=33	=33	=33	=33	=33	=33	=33	=33
!	!LO:DY:b	!	!	!	!	!	!	!	!
4G\	p	8ee-'\L	.	8gg'\L	.	2ryy	2ryy	2ryy	2ryy
.	.	8dd'\	.	8ff'\	.	.	.	.	.
4r	.	8cc'\	.	8ee-'\	.	.	.	.	.
.	.	8bn'\J	.	8dd'\J	.	.	.	.	.
=34	=34	=34	=34	=34	=34	=34	=34	=34	=34
*	*	*^	*	*^	*	*	*	*	*
!	!LO:DY:b	!	!	!LO:DY:b	!	!	!LO:DY:b	!	!	!	!
16C/LL	f	[2cc/	2e-\	f	2aa/	[>2ee-\	f	2ryy	2ryy	2ryy	2ryy
16D/	.	.	.	.	.	.	.	.	.	.	.
16E-/	.	.	.	.	.	.	.	.	.	.	.
16D/JJ	.	.	.	.	.	.	.	.	.	.	.
16C/LL	.	.	.	.	.	.	.	.	.	.	.
16D/	.	.	.	.	.	.	.	.	.	.	.
16E-/	.	.	.	.	.	.	.	.	.	.	.
16D/JJ	.	.	.	.	.	.	.	.	.	.	.
*	*	*v	*v	*	*	*	*	*	*	*	*
=35	=35	=35	=35	=35	=35	=35	=35	=35	=35	=35
!	!	!	!	!	!	!LO:DY:t=f	!	!	!	!
!	!	!	!	!	!	!LO:DY:b	!	!	!	!
4C/	.	8cc\]	.	8rffyy	8ee-\]	f	2ryy	2ryy	2ryy	2ryy
!	!	!	!LO:DY:a	!	!	!LO:DY:a	!	!	!	!
.	.	8cc'\L	p	8ee-'\L	8ryy	p	.	.	.	.
4r	.	8dd'\	.	8ff'\	4ryy	.	.	.	.	.
.	.	8ee-'\J	.	8gg'\J	.	.	.	.	.	.
*	*	*	*	*v	*v	*	*	*	*	*
=36	=36	=36	=36	=36	=36	=36	=36	=36	=36
!	!LO:DY:b	!	!	!	!	!	!	!	!
4C/	p	8cc'/L	.	8ee-'\L	.	2ryy	2ryy	2ryy	2ryy
.	.	8b-'/	.	8dd'\	.	.	.	.	.
4r	.	8a'/	.	8cc'\	.	.	.	.	.
.	.	8g'/J	.	8b-'\J	.	.	.	.	.
=37	=37	=37	=37	=37	=37	=37	=37	=37	=37
*	*	*	*	*^	*	*	*	*	*
!	!	!	!LO:DY:t=f	!	!	!	!	!	!	!
!	!LO:DY:b	!	!LO:DY:b	!	!	!LO:DY:b	!	!	!	!
16F\LL	f	2An/ [2f	f	[>2an/	2f\	f	2ryy	2ryy	2ryy	2ryy
16G\	.	.	.	.	.	.	.	.	.	.
16A\	.	.	.	.	.	.	.	.	.	.
16G\JJ	.	.	.	.	.	.	.	.	.	.
16F\LL	.	.	.	.	.	.	.	.	.	.
16G\	.	.	.	.	.	.	.	.	.	.
16A\	.	.	.	.	.	.	.	.	.	.
16G\JJ	.	.	.	.	.	.	.	.	.	.
*	*	*	*	*v	*v	*	*	*	*	*
!	!	!	!	!LO:LB:g=original	!	!	!	!	!
=38	=38	=38	=38	=38	=38	=38	=38	=38	=38
!	!	!	!	!	!LO:DY:t=f	!	!	!	!
!	!	!	!	!	!LO:DY:b	!	!	!	!
4F\	.	8f/]	.	8a/]	f	2ryy	2ryy	2ryy	2ryy
!	!	!	!LO:DY:a	!	!	!	!	!	!
.	.	8a'\L	p	8ff'\L	.	.	.	.	.
4r	.	8ff'\	.	8aa'\	.	.	.	.	.
.	.	8gg'\J	.	8bb-'\J	.	.	.	.	.
=39	=39	=39	=39	=39	=39	=39	=39	=39	=39
4F\	.	8aa'\L	.	8ccc'\L	.	2ryy	2ryy	2ryy	2ryy
.	.	8ff'\	.	8aa'\	.	.	.	.	.
4r	.	8cc'\	.	8ff'\	.	.	.	.	.
.	.	8a'\J	.	8ee-'\J	.	.	.	.	.
!	!	!LO:LB:g=original	!	!	!	!	!	!	!
=40	=40	=40	=40	=40	=40	=40	=40	=40	=40
!	!LO:DY:b	!	!	!	!	!	!	!	!
8B-\	p	16d/LL	.	4dd\	.	2ryy	2ryy	2ryy	2ryy
.	.	16f/	.	.	.	.	.	.	.
8r	.	16b-/	.	.	.	.	.	.	.
.	.	16f/JJ	.	.	.	.	.	.	.
8B-\	.	16d/LL	.	8r	.	.	.	.	.
.	.	16f/	.	.	.	.	.	.	.
8r	.	16b-/	.	8ff\	.	.	.	.	.
.	.	16f/JJ	.	.	.	.	.	.	.
!LO:LB:g=original	!	!	!	!	!	!	!	!	!
=41	=41	=41	=41	=41	=41	=41	=41	=41	=41
8D\	.	16d/LL	.	8bb-\L	.	2ryy	2ryy	2ryy	2ryy
.	.	16f/	.	.	.	.	.	.	.
8r	.	16b-/	.	8bb-\J	.	.	.	.	.
.	.	16f/JJ	.	.	.	.	.	.	.
8D\	.	16d/LL	.	8r	.	.	.	.	.
.	.	16f/	.	.	.	.	.	.	.
8r	.	16b-/	.	8ddd\	.	.	.	.	.
.	.	16f/JJ	.	.	.	.	.	.	.
=42	=42	=42	=42	=42	=42	=42	=42	=42	=42
8E-\	.	16e-/LL	.	8gg\L	.	2ryy	2ryy	2ryy	2ryy
.	.	16g/	.	.	.	.	.	.	.
8r	.	16b-/	.	8gg\J	.	.	.	.	.
.	.	16g/JJ	.	.	.	.	.	.	.
8E-\	.	16e-/LL	.	8r	.	.	.	.	.
.	.	16g/	.	.	.	.	.	.	.
8r	.	16b-/	.	8bb-\	.	.	.	.	.
.	.	16g/JJ	.	.	.	.	.	.	.
=43	=43	=43	=43	=43	=43	=43	=43	=43	=43
8F\	.	16c/LL	.	8ff\L	.	2ryy	2ryy	2ryy	2ryy
.	.	16f/	.	.	.	.	.	.	.
8r	.	16a/	.	8ff\J	.	.	.	.	.
.	.	16f/JJ	.	.	.	.	.	.	.
8F\	.	16c/LL	.	8r	.	.	.	.	.
.	.	16f/	.	.	.	.	.	.	.
8r	.	16a/	.	8aa\	.	.	.	.	.
.	.	16f/JJ	.	.	.	.	.	.	.
=44	=44	=44	=44	=44	=44	=44	=44	=44	=44
8BB-/	.	16d/LL	.	8bb-\L	.	2ryy	2ryy	2ryy	2ryy
.	.	16f/	.	.	.	.	.	.	.
8r	.	16b-/	.	8bb-\J	.	.	.	.	.
.	.	16f/JJ	.	.	.	.	.	.	.
8BB-/	.	16d/LL	.	8r	.	.	.	.	.
.	.	16f/	.	.	.	.	.	.	.
8r	.	16b-/	.	8ff\	.	.	.	.	.
.	.	16f/JJ	.	.	.	.	.	.	.
=45	=45	=45	=45	=45	=45	=45	=45	=45	=45
8D\	.	16d/LL	.	8bb-\L	.	2ryy	2ryy	2ryy	2ryy
.	.	16f/	.	.	.	.	.	.	.
8r	.	16b-/	.	8bb-\J	.	.	.	.	.
.	.	16f/JJ	.	.	.	.	.	.	.
8D\	.	16d/LL	.	8r	.	.	.	.	.
.	.	16f/	.	.	.	.	.	.	.
8r	.	16b-/	.	8ddd\	.	.	.	.	.
.	.	16f/JJ	.	.	.	.	.	.	.
=46	=46	=46	=46	=46	=46	=46	=46	=46	=46
8E-\	.	16e-/LL	.	8gg\L	.	2ryy	2ryy	2ryy	2ryy
.	.	16g/	.	.	.	.	.	.	.
8r	.	16b-/	.	8gg\J	.	.	.	.	.
.	.	16g/JJ	.	.	.	.	.	.	.
8E-\	.	16e-/LL	.	8r	.	.	.	.	.
.	.	16g/	.	.	.	.	.	.	.
8r	.	16b-/	.	8bb-\	.	.	.	.	.
.	.	16g/JJ	.	.	.	.	.	.	.
!	!	!LO:LB:g=original	!	!LO:LB:g=original	!	!	!	!	!
=47	=47	=47	=47	=47	=47	=47	=47	=47	=47
8F\	.	16c/LL	.	8ff\L	.	2ryy	2ryy	2ryy	2ryy
.	.	16f/	.	.	.	.	.	.	.
8r	.	16a/	.	8ff\J	.	.	.	.	.
.	.	16f/JJ	.	.	.	.	.	.	.
8F\	.	16c/LL	.	8r	.	.	.	.	.
.	.	16f/	.	.	.	.	.	.	.
8r	.	16a/	.	8aa\	.	.	.	.	.
.	.	16f/JJ	.	.	.	.	.	.	.
=48	=48	=48	=48	=48	=48	=48	=48	=48	=48
*	*	*	*	*^	*	*	*	*	*
8BB-/	.	8d/	.	8bb-\	8ryy	.	2ryy	2ryy	2ryy	2ryy
8r	.	8r	.	8r	8ryy	.	.	.	.	.
!	!	!	!	!	!	!LO:DY:b	!	!	!	!
!	!LO:DY:b	!LO:TX:a:t=problem: druga część taktu nieczytelna	!	!	!	!LO:DY:t=for.	!	!	!	!
16B-\LL	f	16bb-/LL	.	16bb-/LL	16dd\LL	f	.	.	.	.
16c\	.	16bb-/	.	16bb-/	16dd\	.	.	.	.	.
16d\	.	16bb-/JJ	.	16bb-/	16dd\	.	.	.	.	.
16B-\JJ	.	16bb-/	.	16bb-/JJ	16dd\JJ	.	.	.	.	.
=49	=49	=49	=49	=49	=49	=49	=49	=49	=49	=49
*	*	*^	*	*	*	*	*	*	*	*
16E-\LL	.	16bb-/LL	2cc\	.	16bb-/LL	2cc\	.	2ryy	2ryy	2ryy	2ryy
16F\	.	16bb-/	.	.	16bb-/	.	.	.	.	.	.
16G\	.	16bb-/	.	.	16bb-/	.	.	.	.	.	.
16E-\JJ	.	16bb-/JJ	.	.	16bb-/JJ	.	.	.	.	.	.
16F\LL	.	16aa/LL	.	.	16aa/LL	.	.	.	.	.	.
16G\	.	16aa/	.	.	16aa/	.	.	.	.	.	.
16A\	.	16aa/	.	.	16aa/	.	.	.	.	.	.
16F\JJ	.	16aa/JJ	.	.	16aa/JJ	.	.	.	.	.	.
!LO:LB:g=original	!	!	!	!	!	!	!	!	!	!	!
=50	=50	=50	=50	=50	=50	=50	=50	=50	=50	=50	=50
*	*	*tremolo	*	*	*tremolo	*	*	*	*	*	*
16B-\LL	.	16bb-/L	16dd\L	.	16bb-/L	2dd\	.	2ryy	2ryy	2ryy	2ryy
16A\	.	16bb-/	16dd\	.	16bb-/	.	.	.	.	.	.
16G\	.	16bb-/	16dd\	.	16bb-/	.	.	.	.	.	.
16F\JJ	.	16bb-/	16dd\	.	16bb-/	.	.	.	.	.	.
16E-\LL	.	16bb-/	16dd\	.	16bb-/	.	.	.	.	.	.
16D\	.	16bb-/	16dd\	.	16bb-/	.	.	.	.	.	.
16C\	.	16bb-/	16dd\	.	16bb-/	.	.	.	.	.	.
16BB-\JJ	.	16bb-/J	16dd\J	.	16bb-/J	.	.	.	.	.	.
*	*	*	*	*	*Xtremolo	*	*	*	*	*	*
=51	=51	=51	=51	=51	=51	=51	=51	=51	=51	=51	=51
16E-\LL	.	16bb-/L	2cc\	.	16bb-/LL	2cc\	.	2ryy	2ryy	2ryy	2ryy
16F\	.	16bb-/	.	.	16bb-/	.	.	.	.	.	.
16G\	.	16bb-/	.	.	16bb-/	.	.	.	.	.	.
16E-\JJ	.	16bb-/J	.	.	16bb-/JJ	.	.	.	.	.	.
16E-\LL	.	16aa/L	.	.	16aa/LL	.	.	.	.	.	.
16F\	.	16aa/	.	.	16aa/	.	.	.	.	.	.
16G\	.	16aa/	.	.	16aa/	.	.	.	.	.	.
16F\JJ	.	16aa/J	.	.	16aa/JJ	.	.	.	.	.	.
*	*	*v	*v	*	*	*	*	*	*	*	*
*	*	*	*	*v	*v	*	*	*	*	*
*	*	*Xtremolo	*	*	*	*	*	*	*
=52	=52	=52	=52	=52	=52	=52	=52	=52	=52
8BB-/L	.	8f/L 8dd 8bb-	.	8f/L 8dd 8bb-	.	2ryy	2ryy	2ryy	2ryy
8D/J	.	8f/J 8dd 8bb-	.	8f/ 8dd 8bb-	.	.	.	.	.
!LO:TX:a:t=problem:mixed beam	!	!	!	!	!	!	!	!	!
8F\L	.	8f/L 8cc 8aa	.	8f/ 8cc 8aa	.	.	.	.	.
8FF/J	.	8f/J 8cc 8aa	.	8f/J 8cc 8aa	.	.	.	.	.
=53	=53	=53	=53	=53	=53	=53	=53	=53	=53
8BB-/L	.	8f/L 8dd 8bb-	.	8f/L 8dd 8bb-	.	2ryy	2ryy	2ryy	2ryy
8D/J	.	8f/J 8dd 8bb-	.	8f/ 8dd 8bb-	.	.	.	.	.
!LO:TX:a:t=problem:mixed beam	!	!	!	!	!	!	!	!	!
8F\L	.	8f/L 8cc 8aa	.	8f/ 8cc 8aa	.	.	.	.	.
8FF/J	.	8f/J 8cc 8aa	.	8f/J 8cc 8aa	.	.	.	.	.
=54	=54	=54	=54	=54	=54	=54	=54	=54	=54
*	*	*	*	*^	*	*	*	*	*
4BB-/	.	4f/ 4b- 4bb-	.	4f/ 4bb-	4dd/	.	2ryy	2ryy	2ryy	2ryy
*	*	*	*	*v	*v	*	*	*	*	*
4r	.	4r	.	4r	.	.	.	.	.
==	==	==	==	==	==	==	==	==	==
*-	*-	*-	*-	*-	*-	*-	*-	*-	*-
!!!system-decoration: [(g1)][(g2)][(g3)]{g4}
!!!RDF**kern: >= above
!!!RDF**kern: <= below
!!!RDF**dynam: f=f.
!!!RDF**dynam: p=p.
!!!ENC: Anna Matuszewska
!!!END: 2020-07-21
